X: 21152
T: Hunt the squirrel
%R: jig
B: James Oswald "The Caledonian Pocket Companion" v.2 p.115 #2
Z: 2018 John Chambers <jc:trillian.mit.edu>
M: 6/8
L: 1/8
K: G
"_Lively"D |\
G2d d2e | d3 TB3 | GAB TA2G | GAB TA2G |\
G2d d2e | d3 B3 | GAB TA2G | G3- G2 :|
|: B |\
c2d ede | c2d ede | c2d e2f | g3- gfe |\
dBd dBd | dBd e2g | GAB TA2G | G3- G2 :|
|: D |\
GBd Bge | d3 (B2g) | dBG TA2G | dBG cAF |\
GBd Bge | (d2g) (B2e) | dBG TA2G | G3- G2 :|
|: B |\
c2g (e/f/)ge | c2g (e/f/)ge | (c2d) (e2f) | g3 gfe |\
dBg dBg | dBg e2g | dBG TA2G | G3- G2 :|
